svgs/sharp-regular/f.svg

<svg xmlns="http://www.w3.org/2000/svg" viewBox="0 0 320 512"><!--! Font Awesome Pro 6.6.0 by @fontawesome - https://fontawesome.com License - https://fontawesome.com/license (Commercial License) Copyright 2024 Fonticons, Inc. --><path d="M24 32L0 32 0 56 0 248 0 456l0 24 48 0 0-24 0-184 184 0 24 0 0-48-24 0L48 224 48 80l248 0 24 0 0-48-24 0L24 32z"/></svg>

<svg xmlns="http://www.w3.org/2000/svg" viewBox="0 0 320 512"><!--! Font Awesome Pro 6.4.0 by @fontawesome - https://fontawesome.com License - https://fontawesome.com/license (Commercial License) Copyright 2023 Fonticons, Inc. --><path d="M24 32H0V56 248 456v24H48V456 272H232h24V224H232 48V80H296h24V32H296 24z"/></svg>
